img/icon-license-3.svg

<svg fill="none" height="16" viewBox="0 0 17 16" width="17" xmlns="http://www.w3.org/2000/svg"><path clip-rule="evenodd" d="m9.50186 1.49976c0-.19892-.07902-.38968-.21967-.530334-.14065-.140653-.33142-.21967-.53033-.21967s-.38968.079017-.53033.21967c-.14065.140654-.21967.331414-.21967.530334v1.25h-.984c-.305 0-.604.08-.869.23l-1.288.737c-.03805.02177-.08116.03315-.125.033h-2.234c-.19891 0-.38968.07901-.53033.21967-.14065.14065-.21967.33141-.21967.53033 0 .19891.07902.38967.21967.53033.14065.14065.33142.21967.53033.21967h.428l-2.112 4.692c-.062382.13884-.08106.29334-.053554.44294.027506.1497.099896.2875.207554.3951l.53-.53-.53.53v.001l.002.002.002.002.006.006.016.015.045.04c.21031.1762.44055.3273.686.45.6297.307 1.32249.4624 2.023.454.88 0 1.556-.22 2.023-.454.24545-.1228.47568-.2738.686-.45l.045-.04.016-.015.006-.006.002-.002.001-.002-.529-.531.53.53c.10766-.1076.18005-.2454.20755-.3951.02751-.1496.00883-.3041-.05355-.44294l-2.112-4.692h.162c.305 0 .604-.08.869-.23l1.289-.737c.03776-.0216.0805-.03298.124-.033h.984v9.50004h-2.5c-.19891 0-.38968.079-.53033.2196-.14065.1407-.21967.3314-.21967.5304 0 .1989.07902.3896.21967.5303.14065.1406.33142.2197.53033.2197h6.50004c.1989 0 .3896-.0791.5303-.2197.1406-.1407.2197-.3314.2197-.5303 0-.199-.0791-.3897-.2197-.5304-.1407-.1406-.3314-.2196-.5303-.2196h-2.50004v-9.50004h.98404c.0435.00002.0862.0114.124.033l1.29.736c.264.152.563.231.868.231h.162l-2.112 4.692c-.0624.13884-.0811.29334-.0536.44294.0275.1497.0999.2875.2076.3951l.53-.53-.53.53v.001l.002.002.002.002.006.006.016.015.045.04c.2103.1762.4405.3272.686.45.6297.307 1.3224.4624 2.023.454.88 0 1.556-.22 2.023-.454.2454-.1227.4757-.2738.686-.45l.045-.04.01-.01.006-.005.006-.006.002-.002.001-.002-.529-.531.53.53c.1076-.1076.18-.2454.2075-.3951.0275-.1496.0088-.3041-.0535-.44294l-2.111-4.692h.427c.1989 0 .3896-.07902.5303-.21967.1406-.14066.2197-.33142.2197-.53033 0-.19892-.0791-.38968-.2197-.53033-.1407-.14066-.3314-.21967-.5303-.21967h-2.234c-.0435-.00003-.0863-.0114-.124-.033l-1.29-.736c-.2641-.15104-.5629-.23066-.867-.231h-.98504zm-7.055 8.477c.285.13504.718.27304 1.305.27304s1.02-.138 1.305-.27304l-1.305-2.9zm10.00004 0c.285.13504.718.27304 1.305.27304s1.02-.138 1.305-.27304l-1.305-2.9z" fill="#000" fill-rule="evenodd"/></svg>

<svg width="17" height="16" viewBox="0 0 17 16" fill="none" xmlns="http://www.w3.org/2000/svg">
<path fill-rule="evenodd" clip-rule="evenodd" d="M9.50186 1.49976C9.50186 1.30084 9.42284 1.11008 9.28219 0.969426C9.14154 0.828773 8.95077 0.749756 8.75186 0.749756C8.55295 0.749756 8.36218 0.828773 8.22153 0.969426C8.08088 1.11008 8.00186 1.30084 8.00186 1.49976V2.74976H7.01786C6.71286 2.74976 6.41386 2.82976 6.14886 2.97976L4.86086 3.71676C4.82281 3.73853 4.7797 3.74991 4.73586 3.74976H2.50186C2.30295 3.74976 2.11218 3.82877 1.97153 3.96943C1.83088 4.11008 1.75186 4.30084 1.75186 4.49976C1.75186 4.69867 1.83088 4.88943 1.97153 5.03009C2.11218 5.17074 2.30295 5.24976 2.50186 5.24976H2.92986L0.81786 9.94176C0.755478 10.0806 0.7368 10.2351 0.764306 10.3847C0.791812 10.5344 0.864202 10.6722 0.97186 10.7798L1.50186 10.2498L0.97186 10.7798V10.7808L0.97386 10.7828L0.97586 10.7848L0.98186 10.7908L0.99786 10.8058L1.04286 10.8458C1.25317 11.022 1.48341 11.1731 1.72886 11.2958C2.35856 11.6028 3.05135 11.7582 3.75186 11.7498C4.63186 11.7498 5.30786 11.5298 5.77486 11.2958C6.02031 11.173 6.25054 11.022 6.46086 10.8458L6.50586 10.8058L6.52186 10.7908L6.52786 10.7848L6.52986 10.7828L6.53086 10.7808L6.00186 10.2498L6.53186 10.7798C6.63952 10.6722 6.71191 10.5344 6.73941 10.3847C6.76692 10.2351 6.74824 10.0806 6.68586 9.94176L4.57386 5.24976H4.73586C5.04086 5.24976 5.33986 5.16976 5.60486 5.01976L6.89386 4.28276C6.93162 4.26116 6.97436 4.24978 7.01786 4.24976H8.00186V13.7498H5.50186C5.30295 13.7498 5.11218 13.8288 4.97153 13.9694C4.83088 14.1101 4.75186 14.3008 4.75186 14.4998C4.75186 14.6987 4.83088 14.8894 4.97153 15.0301C5.11218 15.1707 5.30295 15.2498 5.50186 15.2498H12.0019C12.2008 15.2498 12.3915 15.1707 12.5322 15.0301C12.6728 14.8894 12.7519 14.6987 12.7519 14.4998C12.7519 14.3008 12.6728 14.1101 12.5322 13.9694C12.3915 13.8288 12.2008 13.7498 12.0019 13.7498H9.50186V4.24976H10.4859C10.5294 4.24978 10.5721 4.26116 10.6099 4.28276L11.8999 5.01876C12.1639 5.17076 12.4629 5.24976 12.7679 5.24976H12.9299L10.8179 9.94176C10.7555 10.0806 10.7368 10.2351 10.7643 10.3847C10.7918 10.5344 10.8642 10.6722 10.9719 10.7798L11.5019 10.2498L10.9719 10.7798V10.7808L10.9739 10.7828L10.9759 10.7848L10.9819 10.7908L10.9979 10.8058L11.0429 10.8458C11.2532 11.022 11.4834 11.173 11.7289 11.2958C12.3586 11.6028 13.0513 11.7582 13.7519 11.7498C14.6319 11.7498 15.3079 11.5298 15.7749 11.2958C16.0203 11.1731 16.2506 11.022 16.4609 10.8458L16.5059 10.8058L16.5159 10.7958L16.5219 10.7908L16.5279 10.7848L16.5299 10.7828L16.5309 10.7808L16.0019 10.2498L16.5319 10.7798C16.6395 10.6722 16.7119 10.5344 16.7394 10.3847C16.7669 10.2351 16.7482 10.0806 16.6859 9.94176L14.5749 5.24976H15.0019C15.2008 5.24976 15.3915 5.17074 15.5322 5.03009C15.6728 4.88943 15.7519 4.69867 15.7519 4.49976C15.7519 4.30084 15.6728 4.11008 15.5322 3.96943C15.3915 3.82877 15.2008 3.74976 15.0019 3.74976H12.7679C12.7244 3.74973 12.6816 3.73836 12.6439 3.71676L11.3539 2.98076C11.0898 2.82972 10.791 2.7501 10.4869 2.74976H9.50186V1.49976ZM2.44686 9.97676C2.73186 10.1118 3.16486 10.2498 3.75186 10.2498C4.33886 10.2498 4.77186 10.1118 5.05686 9.97676L3.75186 7.07676L2.44686 9.97676ZM12.4469 9.97676C12.7319 10.1118 13.1649 10.2498 13.7519 10.2498C14.3389 10.2498 14.7719 10.1118 15.0569 9.97676L13.7519 7.07676L12.4469 9.97676Z" fill="black"/>
</svg>
